src/symbolic/actions/camera-switch-symbolic.svg

<svg xmlns="http://www.w3.org/2000/svg" width="16" height="16" version="1.1">
 <path style="fill:#555555" d="m 7.5,6.0000001 c -0.831,0 -1.5,0.669 -1.5,1.5 V 11.5 C 6,12.331 6.669,13 7.5,13 h 4 C 12.331,13 13,12.331 13,11.5 V 10.794922 L 15.353516,11.9375 C 15.64072,12.114879 16.000209,11.89156 16,11.537109 V 7.4609376 c 2.87e-4,-0.2593932 -0.200689,-0.4682008 -0.443359,-0.4609375 -0.07157,0.00222 -0.141175,0.024137 -0.203125,0.0625 L 13,8.2050782 V 7.5000001 c 0,-0.831 -0.669,-1.5 -1.5,-1.5 z"/>
 <path style="opacity:0.3;fill:#555555" d="M 4.5 2 C 3.6690003 2 3 2.669 3 3.5 L 3 4.2050781 L 0.64648438 3.0625 C 0.58453437 3.024137 0.51492937 3.00222 0.44335938 3 C 0.20068938 2.9927367 -0.000287 3.2015443 0 3.4609375 L 0 7.5371094 C -0.000209 7.8915604 0.35928038 8.114879 0.64648438 7.9375 L 3 6.7949219 L 3 7.5 C 3 8.331 3.6690003 9 4.5 9 L 5 9 L 5 7.5 C 5 6.1322972 6.1322972 5 7.5 5 L 10 5 L 10 3.5 C 10 2.669 9.331 2 8.5 2 L 4.5 2 z"/>
</svg>

<svg width="16" height="16" version="1.1" xmlns="http://www.w3.org/2000/svg">
 <path d="m7.5 6c-0.831 0-1.5 0.669-1.5 1.5v4c0 0.831 0.669 1.5 1.5 1.5h4c0.831 0 1.5-0.669 1.5-1.5v-0.70508l2.3535 1.1426c0.2872 0.17738 0.64669-0.04594 0.64648-0.40039v-4.0762c2.87e-4 -0.25939-0.20069-0.4682-0.44336-0.46094-0.07157 0.00222-0.14118 0.024137-0.20312 0.0625l-2.3535 1.1426v-0.70508c0-0.831-0.669-1.5-1.5-1.5h-4zm0.5 2h3v3h-3v-3z" fill="#555555"/>
 <path d="m4.5 2c-0.831 0-1.5 0.669-1.5 1.5v0.70508l-2.3535-1.1426c-0.06195-0.038363-0.13156-0.06028-0.20312-0.0625-0.24267-0.0072633-0.44365 0.20154-0.44336 0.46094v4.0762c-2.09e-4 0.35445 0.35928 0.57777 0.64648 0.40039l2.3535-1.1426v0.70508c0 0.831 0.669 1.5 1.5 1.5h0.5v-1.5c0-0.17096 0.017149-0.33815 0.050781-0.5h-0.050781v-3h3v1h2v-1.5c0-0.831-0.669-1.5-1.5-1.5h-4z" fill="#555555" opacity=".3"/>
</svg>
